generator/images/other/Group2.svg

<svg width="470" height="667" fill="none" xmlns="http://www.w3.org/2000/svg"><path d="M63.442 269.658l-7.914 42.557a83.53 83.53 0 001.75 11.505l11.95-64.258a82.91 82.91 0 00-5.786 10.196zm15.64-22.161l-16.924 90.998a85.985 85.985 0 002.848 5.912L83.85 243.082a96.57 96.57 0 00-4.768 4.415zm13.588-11.108L70.82 353.88c.982 1.431 2.047 2.824 3.147 4.213L97.105 233.68c-1.513.862-2.971 1.804-4.434 2.709zm12.805-6.891L80.231 365.241a105.757 105.757 0 003.32 3.276l26.174-140.736a89.744 89.744 0 00-4.25 1.717zm12.33-4.302l-27.71 149a98.325 98.325 0 003.433 2.638l28.39-152.652c-1.39.306-2.761.643-4.113 1.014zm11.997-2.393l-29.534 158.65a129.64 129.64 0 003.522 2.165l30.017-161.371a92.268 92.268 0 00-4.005.556zm11.761-1.434L110.687 387.42l.351.182c1.081.557 2.158 1.095 3.236 1.634l31.29-168.243c-1.324.115-2.658.24-4.001.376zm11.713-.989l-32.038 172.268c1.203.578 2.405 1.149 3.606 1.715l32.431-174.259c-1.348.099-2.669.18-3.999.276zm11.619-.638l-33.043 177.825 3.621 1.606 33.411-179.593-3.989.162zm11.628-.409l-34.004 182.842c1.212.505 2.431 1.006 3.641 1.493l34.305-184.425-3.942.09zm11.546-.215l-34.823 187.338c1.222.472 2.449.941 3.68 1.407l35.096-188.803-3.953.058zm11.569-.152L164.034 410.41c1.232.433 2.465.855 3.688 1.275l35.851-192.774-3.935.055zm11.562-.176l-36.311 195.243c1.246.383 2.493.766 3.731 1.137l36.521-196.469-3.941.089zm11.589-.353l-36.984 198.862c1.228.357 2.49.69 3.734 1.027l37.196-200.099c-1.301.096-2.618.154-3.946.21zm11.651-.69l-37.652 202.458c1.254.309 2.509.618 3.761.909l37.883-203.727c-1.315.129-2.645.249-3.992.36zm11.788-1.295L207.86 422.754c1.268.271 2.528.53 3.78.779l38.605-207.675c-1.34.225-2.679.423-4.017.594zm11.898-2.138l-39.158 210.581c1.272.219 2.543.438 3.805.644l39.47-212.232a86.241 86.241 0 01-4.117 1.007zm12.182-3.513l-40.117 215.832c1.285.18 2.562.35 3.831.508l40.514-217.974a84.12 84.12 0 01-4.228 1.634zm12.581-5.656l-41.452 222.856c1.293.135 2.58.258 3.862.368l41.999-225.856a76.828 76.828 0 01-4.409 2.632zm13.241-9.235l-43.341 233.012c1.303.083 2.6.153 3.891.211l44.18-237.68c-1.547 1.544-3.112 3.061-4.73 4.457zm19.378-23.863c-1.556 2.661-3.183 5.134-4.817 7.525L264.229 429.4c1.307.027 2.614.054 3.914.057l48.11-258.689-.745 1.279zm11.87-20.204l-51.611 277.603a105.48 105.48 0 003.95-.105l53.327-286.865a587.244 587.244 0 00-5.666 9.367zm16.333-25.864l-56.352 302.975a395.7 395.7 0 003.981-.274l57.688-310.127a206.517 206.517 0 00-5.317 7.426zm15.159-19.55l-59.801 321.549c1.345-.147 2.679-.295 4.011-.462l60.666-326.205a120.16 120.16 0 00-4.876 5.118zm13.925-13.039l-61.921 333.074c1.356-.203 2.704-.417 4.044-.642l62.416-335.548a84.901 84.901 0 00-4.539 3.115zm12.993-7.749l-63 338.752 4.086-.837 63.157-339.627a56.384 56.384 0 00-4.243 1.712zm12.258-3.948l-63.237 340.026c1.383-.349 2.759-.694 4.122-1.059l63.161-339.62c-1.365.17-2.714.387-4.046.653zm11.734-1.13l-62.831 337.839c1.401-.424 2.791-.854 4.17-1.289L413.67 80.715a62.227 62.227 0 00-3.89-.153zm11.35.991l-61.906 332.838c1.41-.496 2.818-1.009 4.21-1.532l61.48-330.58a93.122 93.122 0 00-3.784-.726zm11.033 2.606L371.63 409.643c1.429-.597 2.852-1.19 4.26-1.803l59.982-322.489a99.392 99.392 0 00-3.709-1.191zm10.809 3.87l-58.78 316.03a195.724 195.724 0 004.315-2.096l58.101-312.377c-1.234-.55-2.439-1.06-3.636-1.557zm10.61 4.912l-56.656 304.64a238.702 238.702 0 004.378-2.435l55.838-300.242a103.401 103.401 0 00-3.56-1.963zm10.366 6.221l-54.091 290.851a286.493 286.493 0 004.453-2.81l53.11-285.576a116.91 116.91 0 00-3.472-2.465zm10.08 7.764l-51.044 274.46a120.284 120.284 0 004.533-3.268l49.865-268.125c-1.074-1.063-2.21-2.073-3.354-3.067zm9.733 9.625l-47.383 254.777a234.54 234.54 0 004.634-3.81l45.978-247.195a107.966 107.966 0 00-3.229-3.772zm9.319 11.885L450.1 359.541a264.734 264.734 0 004.765-4.52l41.269-221.904a108.936 108.936 0 00-3.054-4.68zm8.769 14.84l-37.59 202.09a188.507 188.507 0 004.95-5.512l35.449-190.609a140.365 140.365 0 00-2.809-5.969zm7.939 19.274l-30.754 165.27c1.84-2.41 3.595-4.815 5.266-7.214l27.885-149.935a124.7 124.7 0 00-2.397-8.121zm7.772 41.27a175.546 175.546 0 00-1.377-13.698l-21.039 113.128a177.202 177.202 0 006.219-12.431l16.197-86.999z" fill="#FFC359"/><path d="M129.482 414.459c-32.299-87.864 16.477-186.646 108.943-220.637 92.467-33.991-23.913 213.63 225.908 97.545 249.822-116.084-16.476 186.647-108.943 220.638-92.467 33.99-193.609-9.682-225.908-97.546z" fill="#FFC359"/></svg>

<svg width="470" height="667" viewBox="0 0 470 667" fill="none" xmlns="http://www.w3.org/2000/svg">
<path d="M63.4422 269.658L55.5277 312.215C55.8428 316.086 56.4276 319.93 57.2777 323.72L69.2283 259.462C67.0614 262.72 65.1279 266.127 63.4422 269.658Z" fill="#FFC359"/>
<path d="M79.0815 247.497L62.1579 338.495C63.0213 340.469 63.961 342.44 65.0064 344.407L83.8505 243.082C82.201 244.51 80.6114 245.981 79.0815 247.497Z" fill="#FFC359"/>
<path d="M92.6706 236.389L70.82 353.88C71.8019 355.311 72.8666 356.704 73.9671 358.093L97.1049 233.68C95.5918 234.542 94.1337 235.484 92.6706 236.389Z" fill="#FFC359"/>
<path d="M105.475 229.498L80.2305 365.241C81.3025 366.344 82.4104 367.442 83.5517 368.517L109.725 227.781C108.284 228.318 106.871 228.895 105.475 229.498Z" fill="#FFC359"/>
<path d="M117.805 225.196L90.0942 374.196C91.2068 375.091 92.3515 375.97 93.5281 376.834L121.918 224.182C120.528 224.488 119.157 224.825 117.805 225.196Z" fill="#FFC359"/>
<path d="M129.802 222.803L100.268 381.453C101.42 382.186 102.598 382.912 103.79 383.618L133.807 222.247C132.464 222.411 131.126 222.582 129.802 222.803Z" fill="#FFC359"/>
<path d="M141.563 221.369L110.687 387.42L111.038 387.602C112.119 388.159 113.196 388.697 114.274 389.236L145.564 220.993C144.24 221.108 142.906 221.233 141.563 221.369Z" fill="#FFC359"/>
<path d="M153.276 220.38L121.238 392.648C122.441 393.226 123.643 393.797 124.844 394.363L157.275 220.104C155.927 220.203 154.606 220.284 153.276 220.38Z" fill="#FFC359"/>
<path d="M164.895 219.742L131.852 397.567L135.473 399.173L168.884 219.58L164.895 219.742Z" fill="#FFC359"/>
<path d="M176.523 219.333L142.519 402.175C143.731 402.68 144.95 403.181 146.16 403.668L180.465 219.243L176.523 219.333Z" fill="#FFC359"/>
<path d="M188.069 219.118L153.246 406.456C154.468 406.928 155.695 407.397 156.926 407.863L192.022 219.06L188.069 219.118Z" fill="#FFC359"/>
<path d="M199.638 218.966L164.034 410.41C165.266 410.843 166.499 411.265 167.722 411.685L203.573 218.911L199.638 218.966Z" fill="#FFC359"/>
<path d="M211.2 218.79L174.889 414.033C176.135 414.416 177.382 414.799 178.62 415.17L215.141 218.701L211.2 218.79Z" fill="#FFC359"/>
<path d="M222.789 218.437L185.805 417.299C187.033 417.656 188.295 417.989 189.539 418.326L226.735 218.227C225.434 218.323 224.117 218.381 222.789 218.437Z" fill="#FFC359"/>
<path d="M234.44 217.747L196.788 420.205C198.042 420.514 199.297 420.823 200.549 421.114L238.432 217.387C237.117 217.516 235.787 217.636 234.44 217.747Z" fill="#FFC359"/>
<path d="M246.228 216.452L207.86 422.754C209.128 423.025 210.388 423.284 211.64 423.533L250.245 215.858C248.905 216.083 247.566 216.281 246.228 216.452Z" fill="#FFC359"/>
<path d="M258.126 214.314L218.968 424.895C220.24 425.114 221.511 425.333 222.773 425.539L262.243 213.307C260.872 213.678 259.499 214.014 258.126 214.314Z" fill="#FFC359"/>
<path d="M270.308 210.801L230.191 426.633C231.476 426.813 232.753 426.983 234.022 427.141L274.536 209.167C273.145 209.748 271.736 210.293 270.308 210.801Z" fill="#FFC359"/>
<path d="M282.889 205.145L241.437 428.001C242.73 428.136 244.017 428.259 245.299 428.369L287.298 202.513C285.853 203.445 284.378 204.32 282.889 205.145Z" fill="#FFC359"/>
<path d="M296.13 195.91L252.789 428.922C254.092 429.005 255.389 429.075 256.68 429.133L300.86 191.453C299.313 192.997 297.748 194.514 296.13 195.91Z" fill="#FFC359"/>
<path d="M315.508 172.047C313.952 174.708 312.325 177.181 310.691 179.572L264.229 429.4C265.536 429.427 266.843 429.454 268.143 429.457L316.253 170.768L315.508 172.047Z" fill="#FFC359"/>
<path d="M327.378 151.843L275.767 429.446C277.072 429.436 278.388 429.401 279.717 429.341L333.044 142.476C331.159 145.527 329.27 148.649 327.378 151.843Z" fill="#FFC359"/>
<path d="M343.711 125.979L287.359 428.954C288.696 428.869 290.024 428.777 291.34 428.68L349.028 118.553C347.239 120.932 345.464 123.419 343.711 125.979Z" fill="#FFC359"/>
<path d="M358.87 106.429L299.069 427.978C300.414 427.831 301.748 427.683 303.08 427.516L363.746 101.311C362.097 102.935 360.479 104.646 358.87 106.429Z" fill="#FFC359"/>
<path d="M372.795 93.3894L310.874 426.464C312.23 426.261 313.578 426.047 314.918 425.822L377.334 90.274C375.794 91.2588 374.281 92.2973 372.795 93.3894Z" fill="#FFC359"/>
<path d="M385.788 85.6413L322.788 424.393C324.15 424.114 325.512 423.835 326.874 423.556L390.031 83.9287C388.599 84.4399 387.185 85.0107 385.788 85.6413Z" fill="#FFC359"/>
<path d="M398.046 81.6929L334.809 421.719C336.192 421.37 337.568 421.025 338.931 420.66L402.092 81.04C400.727 81.2099 399.378 81.4275 398.046 81.6929Z" fill="#FFC359"/>
<path d="M409.78 80.5625L346.949 418.402C348.35 417.978 349.74 417.548 351.119 417.113L413.67 80.7146C412.361 80.6228 411.065 80.5721 409.78 80.5625Z" fill="#FFC359"/>
<path d="M421.13 81.5539L359.224 414.392C360.634 413.896 362.042 413.383 363.434 412.86L424.914 82.2809C423.639 82.0088 422.377 81.7665 421.13 81.5539Z" fill="#FFC359"/>
<path d="M432.163 84.1597L371.63 409.643C373.059 409.046 374.482 408.453 375.89 407.84L435.872 85.3511C434.616 84.925 433.384 84.5211 432.163 84.1597Z" fill="#FFC359"/>
<path d="M442.972 88.0302L384.192 404.06C385.643 403.379 387.086 402.674 388.507 401.964L446.608 89.5868C445.374 89.0368 444.169 88.5268 442.972 88.0302Z" fill="#FFC359"/>
<path d="M453.582 92.9425L396.926 397.582C398.359 396.804 399.855 395.974 401.304 395.147L457.142 94.905C455.969 94.2281 454.783 93.574 453.582 92.9425Z" fill="#FFC359"/>
<path d="M463.948 99.1627L409.857 390.014C411.353 389.086 412.838 388.155 414.31 387.204L467.42 101.628C466.282 100.786 465.117 99.9633 463.948 99.1627Z" fill="#FFC359"/>
<path d="M474.028 106.927L422.984 381.387C424.526 380.329 426.037 379.239 427.517 378.119L477.382 109.994C476.308 108.931 475.172 107.921 474.028 106.927Z" fill="#FFC359"/>
<path d="M483.761 116.552L436.378 371.329C437.954 370.07 439.491 368.799 441.012 367.519L486.99 120.324C485.934 119.043 484.859 117.765 483.761 116.552Z" fill="#FFC359"/>
<path d="M493.08 128.437L450.1 359.541C451.719 358.046 453.307 356.533 454.865 355.021L496.134 133.117C495.145 131.514 494.127 129.954 493.08 128.437Z" fill="#FFC359"/>
<path d="M501.849 143.277L464.259 345.367C465.963 343.542 467.613 341.705 469.209 339.855L504.658 149.246C503.762 147.225 502.831 145.238 501.849 143.277Z" fill="#FFC359"/>
<path d="M509.788 162.551L479.034 327.821C480.874 325.411 482.629 323.006 484.3 320.607L512.185 170.672C511.47 167.911 510.671 165.204 509.788 162.551Z" fill="#FFC359"/>
<path d="M517.56 203.821C517.278 199.216 516.819 194.65 516.183 190.123L495.144 303.251C497.387 299.174 499.46 295.03 501.363 290.82L517.56 203.821Z" fill="#FFC359"/>
<path d="M129.482 414.459C97.1833 326.595 145.959 227.813 238.425 193.822C330.892 159.831 214.512 407.452 464.333 291.367C714.155 175.283 447.857 478.014 355.39 512.005C262.923 545.995 161.781 502.323 129.482 414.459Z" fill="#FFC359"/>
</svg>
